X: 42374
T: Well May Charlie Wear The Crown
R: strathspey
M: 4/4
K: Bminor
f{gf}e|d2 c>B B>c {Bc}d>D|F2 A>B A2 f{gf}e|d2 c>B B>c {Bc}d>^E|F2 B>c B2 f{gf}e|
d2 c{dc}>B B>c {Bc}d>D|F2 A3 {c}Ha3{gf} e|f>ed>c B>c {Bc}d^E|F2 B>c B2|
Bc|d2de f2 f>{gfe}d|e>dcB {AB}AA (f{gf}e)|d2 c>{dc}B B>c {Bc}d>^E|F2 B>c H[B2D2] TBc|
d2dA {A}f2 fd|e>dc>B Ha3{gf} e|f{gf}>ed>c B>c {Bc}d>^E|F2 B>c [B2D2]||

